X:1
T:O render thanks to God above
T:Stephen Jarvis
T:p2, Twelve Psalm Tunes, and Eight Anthems, in Score, London: [1821]
T:Edition by Edmund Gooch released into the public domain, January 2011. As such, it may be freely copied and performed.
T:O render thanks to God above
T:Psalm 106 N.V. Verses 1. 2. 4. & last
C:Stephen Jarvis
Z:p2, Twelve Psalm Tunes, and
Z:Eight Anthems, in Score,
Z:London: [1821]
%%score [ 1 2 3 4 ]
L:1/8
M:3/2
K:E
V:1 treble nm="Soprano" snm="S."
V:2 treble nm="Alto" snm="A."
V:3 treble-8 transpose=-12 nm="Tenor" snm="T."
V:4 bass nm="Bass" snm="B."
V:1
 E4 | (E3 F G4) A4 | (G3 A B4) c4 | (B3 c E4) D4 | E8 F4 | (G3 F G4) ^A4 | (B3 c d4) B4 | %7
w: Ex-|tend _ _ to|me _ _ that|fa- * * vour,|Lord, Thou|to _ _ thy|cho- * * sen|
w: O|ren- * * der|thanks _ _ to|God _ _ a-|bove, The|foun- * * tain|of _ _ e-|
w: Who|can _ _ his|migh- * * ty|deeds _ _ ex-|press, Not|on- * * ly|vast, _ _ but|
 (AGec B4) ^A4 | B8 B4 | (B2 cA G4) G4 | (G2 AF E4) F4 | (G2 B2 c2 B2) (AGFE) | (G4 F4) (F2 GA) | %13
w: dost _ _ _ _ af-|ford; When|thou _ _ _ re-|turn’st _ _ _ to|set _ _ _ them _ _ _|free, _ Let _ _|
w: ter- * * * * nal|love; Whose|mer- * * * cy|firm _ _ _ through|a- * * * ges _ _ _|past _ Has _ _|
w: num- * * * * ber-|less? What|mor- * * * tal|e- * * * lo-|quence _ _ _ can _ _ _|raise _ His _ _|
 (G3 A B4) (e2 c2) | (c2 B2 A2 G2) (c2 B2) | (BAGF E4) D4 | E8 |] %17
w: thy _ _ sal- *|va- * * * tion _|vi- * * * * sit|me.|
w: stood, _ _ and _|shall _ _ _ for _|e- * * * * ver|last.|
w: tri- * * bute _|of _ _ _ im- *|mor- * * * * tal|praise.|
V:2
 E4 | E8 E4 | E8 E4 | (E3 C B,4) B,4 | B,8 D4 | E8 C4 | (D3 E F4) F4 | G4 F8 | F8 G4 | %9
w: Ex-|tend to|me that|fa- * * vour,|Lord, Thou|to thy|cho- * * sen|dost af-|ford; When|
w: O|ren- der|thanks to|God _ _ a-|bove, The|foun- tain|of _ _ e-|ter- nal|love; Whose|
w: Who|can his|migh- ty|deeds _ _ ex-|press, Not|on- ly|vast, _ _ but|num- ber-|less? What|
 (G2 AF E4) E4 | (E2 FD B,4) D4 | E8 E4 | (E4 D4) D4 | E8 (G2 A2) | (A2 G2 F2 E2) (D2 E2) | %15
w: thou _ _ _ re-|turn’st _ _ _ to|set them|free, _ Let|thy sal- *|va- * * * tion _|
w: mer- * * * cy|firm _ _ _ through|a- ges|past _ Has|stood, and _|shall _ _ _ for _|
w: mor- * * * tal|e- * * * lo-|quence can|raise _ His|tri- bute _|of _ _ _ im- *|
 (CDEF B,4) B,4 | B,8 |] %17
w: vi- * * * * sit|me.|
w: e- * * * * ver|last.|
w: mor- * * * * tal|praise.|
V:3
 G4 | (G3 A B4) c4 | (B4 e4) e4 | (B3 A G4) (F2 GA) | G8 B4 | (B4 c4) c4 | (f3 e d4) f4 | %7
w: Ex-|tend _ _ to|me _ that|fa- * * vour, _ _|Lord, Thou|to _ thy|cho- * * sen|
w: O|ren- * * der|thanks _ to|God _ _ a- * *|bove, The|foun- * tain|of _ _ e-|
w: Who|can _ _ his|migh- * ty|deeds _ _ ex- * *|press, Not|on- * ly|vast, _ _ but|
 (e4 d4) c4 | d8 e4 | (e3 d e4) e4 | B8 B4 | (B4 A2 G2) (e2 ^A2) | B8 B4 | (B4 e4) e4 | %14
w: dost _ af-|ford; When|thou _ _ re-|turn’st to|set _ _ them _|free, Let|thy _ sal-|
w: ter- * nal|love; Whose|mer- * * cy|firm through|a- * * ges _|past Has|stood, _ and|
w: num- * ber-|less? What|mor- * * tal|e- lo-|quence _ _ can _|raise His|tri- * bute|
 (f2 e2 d2 e2) (f2 B2) | (c2 Bc G4) F4 | G8 |] %17
w: va- * * * tion _|vi- * * * sit|me.|
w: shall _ _ _ for _|e- * * * ver|last.|
w: of _ _ _ im- *|mor- * * * tal|praise.|
V:4
 E,4 | E,8 E,4 | (E,3 F, G,4) A,4 | (G,3 A, B,4) B,,4 | E,8 B,,4 | (E,3 D, C,4) (F,3 E,) | %6
w: Ex-|tend to|me _ _ that|fa- * * vour,|Lord, Thou|to _ _ thy _|
w: O|ren- der|thanks _ _ to|God _ _ a-|bove, The|foun- * * tain _|
w: Who|can his|migh- * * ty|deeds _ _ ex-|press, Not|on- * * ly _|
 (D,3 C, B,,4) D,4 | E,4 F,8 | B,,8 E,4 | (A,3 B, C4) C4 | (B,3 A, G,4) F,4 | %11
w: cho- * * sen|dost af-|ford; When|thou _ _ re-|turn’st _ _ to|
w: of _ _ e-|ter- nal|love; Whose|mer- * * cy|firm _ _ through|
w: vast, _ _ but|num- ber-|less? What|mor- * * tal|e- * * lo-|
"^Original order of staves is Counter - Tenor - Treble - Bass: the counter part is notated in the source in the treble clef, anoctave above sounding pitch.The vocal bass part is figured in the source: this figuring has been omitted from the present edition to facilitate theunderlaying of the text. The first verse only of the text is given in the source: subsequent verses have been addededitorially, on the basis of the title 'Psalm 106 N.V. Verses 1. 2. 4. & last' in the source.The following notes are notated as small quavers in the source, but have been given as full-size notes in thepresent edition:Treble: Bar 7, beat 1, A; bar 12, beat 3, G# and A.Tenor: Bar 3, beat 3, G# and A." (E,2 G,2 A,2 B,2) [C,C]4 | %12
w: set _ _ _ them|
w: a- * * * ges|
w: quence _ _ _ can|
 [B,,B,]8 B,,4 | (E,3 F, G,4) E,4 | (D,2 E,2 F,2 G,2) (A,2 G,2) | (F,2 G,A, B,4) B,,4 | E,8 |] %17
w: free, Let|thy _ _ sal-|va- * * * tion _|vi- * * * sit|me.|
w: past Has|stood, _ _ and|shall _ _ _ for _|e- * * * ver|last.|
w: raise His|tri- * * bute|of _ _ _ im- *|mor- * * * tal|praise.|

